src/pos-icons/turtle.svg

<svg height="24" viewBox="0 0 24 24" width="24" xmlns="http://www.w3.org/2000/svg"><path d="m8.47 5.95c.48-.28 1-.51 1.53-.67v-1.28c0-1.1.87-2 1.97-2.03 1.16.03 2.03.93 2.03 2.03v1.28c.53.17 1.05.39 1.53.67l-1.6 2.12h-3.86zm10.53 6.05c0 .5-.05.95-.14 1.4l-2.53-.78-1.19-3.66 1.6-2.11c.43.4.81.85 1.14 1.35.79-.07 1.55.05 2.23.39 1.03.53 1.73 1.54 1.89 2.69l-3 .36zm-14 0c0-.12 0-.24 0-.35l-3-.37c.16-1.15.86-2.16 1.89-2.69.68-.34 1.45-.46 2.19-.33.33-.51.71-.98 1.16-1.39l1.62 2.08-1.19 3.67-2.53.78c-.09-.45-.14-.9-.14-1.4m5.24-2.43h3.52l1.09 3.36-2.85 2.07-2.85-2.07zm-2.11 4.48 3.12 2.26v2.65c-.57-.06-1.12-.19-1.63-.38l-1.23 2.76c-1.06-.47-1.82-1.44-2.02-2.58-.14-.76-.02-1.52.32-2.2-.45-.52-.82-1.1-1.1-1.74zm7.74 0 2.54.77c-.28.64-.65 1.22-1.1 1.74.34.68.46 1.44.33 2.2-.21 1.14-.97 2.11-2.03 2.58l-1.22-2.76c-.53.19-1.06.36-1.64.42v-2.69z"/></svg>

<?xml version="1.0" encoding="UTF-8"?><!DOCTYPE svg PUBLIC "-//W3C//DTD SVG 1.1//EN" "http://www.w3.org/Graphics/SVG/1.1/DTD/svg11.dtd"><svg xmlns="http://www.w3.org/2000/svg" xmlns:xlink="http://www.w3.org/1999/xlink" version="1.1" id="mdi-turtle" width="24" height="24" viewBox="0 0 24 24"><path d="M8.47,5.95C8.95,5.67 9.47,5.44 10,5.28V4C10,2.9 10.87,2 11.97,1.97C13.13,2 14,2.9 14,4V5.28C14.53,5.45 15.05,5.67 15.53,5.95L13.93,8.07H10.07L8.47,5.95M19,12C19,12.5 18.95,12.95 18.86,13.4L16.33,12.62L15.14,8.96L16.74,6.85C17.17,7.25 17.55,7.7 17.88,8.2C18.67,8.13 19.43,8.25 20.11,8.59C21.14,9.12 21.84,10.13 22,11.28L19,11.64C19,11.76 19,11.88 19,12M5,12C5,11.88 5,11.76 5,11.65L2,11.28C2.16,10.13 2.86,9.12 3.89,8.59C4.57,8.25 5.34,8.13 6.08,8.26C6.41,7.75 6.79,7.28 7.24,6.87L8.86,8.95L7.67,12.62L5.14,13.4C5.05,12.95 5,12.5 5,12M10.24,9.57H13.76L14.85,12.93L12,15L9.15,12.93L10.24,9.57M8.13,14.05L11.25,16.31V18.96C10.68,18.9 10.13,18.77 9.62,18.58L8.39,21.34C7.33,20.87 6.57,19.9 6.37,18.76C6.23,18 6.35,17.24 6.69,16.56C6.24,16.04 5.87,15.46 5.59,14.82L8.13,14.05M15.87,14.05L18.41,14.82C18.13,15.46 17.76,16.04 17.31,16.56C17.65,17.24 17.77,18 17.64,18.76C17.43,19.9 16.67,20.87 15.61,21.34L14.39,18.58C13.86,18.77 13.33,18.94 12.75,19V16.31L15.87,14.05Z" /></svg>
